src/22/panel/mic-volume-muted.svg

<svg xmlns="http://www.w3.org/2000/svg" width="22" height="22" version="1.1">
 <defs>
  <style id="current-color-scheme" type="text/css">
   .ColorScheme-Text { color:#bebebe; } .ColorScheme-Highlight { color:#5294e2; }
  </style>
 </defs>
 <path style="fill:currentColor" class="ColorScheme-Highlight" d="m11 3c-1.6621 0-3 1.3381-3 3v5.002c0 1.662 1.3379 2.998 3 2.998s3-1.3362 3-2.998v-5.002c0-1.6619-1.338-3-3-3zm-6 7v0.99805c0 2.967 2 6.002 5 6.002v2h2v-2c3 0 5-3.0356 5-6.002v-0.998h-2v0.99805c0 2.234-1.767 4.002-4 4.002-2.2334 0-4-1.768-4-4.002v-0.998h-2z"/>
</svg>

<svg xmlns="http://www.w3.org/2000/svg" width="22" height="22"><defs><style id="current-color-scheme" type="text/css"></style></defs><path d="M11 3C9.338 3 8 4.338 8 6v5.002C8 12.664 9.338 14 11 14s3-1.336 3-2.998V6c0-1.662-1.338-3-3-3zm-6 7v.998C5 13.965 7 17 10 17v2h2v-2c3 0 5-3.036 5-6.002V10h-2v.998A3.97 3.97 0 0 1 11 15a3.97 3.97 0 0 1-4-4.002V10H5z" fill="currentColor" color="#5294e2"/></svg>
